X: 0
T: Wallace & Gromit Theme
C: Julian Nott
M: 4/4
L: 1/8
K: F
c2.B.A c2.B.A | .c(GG6) | \
.d.c.d e2 .d.c.B | AA/2c/2 fc fcfa |
c2 .B.A c2 .B.A | .c(GG6) | \
.d.c.d e2 d2 .e | f c .f.fed |
f2 .e d2 .f.e.d | f2 .d c2 .c.=B.c | \
dcdc A<GAG>A | (A4 A).A.^G.A |
A2 .G E2 .E.^D.E | G2 .F D2 .D.^C.D |\
FDF A2 F2 A | f<ff/2 z2 f z c z|
[M:2/4] a^d ec | \
[M:4/4] c2 .B.A c2 .B.A | .c(GG6) | .d.c.d e2 .d.c.B |
AA/2c/2 fc fcfa | c2 .B.A c2 .B.A | \
.c(GG6) | .d.c.d e2 d2 .e |
f2c2/f2 z2 |


